X: 1694
T: Ma Seal's Schottische
B: australian traditional tunes wiki
M:4/4
L:1/8
R: Schottische
Q: 1/4=100
K:C
V:1 
(3GAB||"C"c>e G>c (3efe c>B|"F"A2A>GA3f|"C"eg/g/ c>e "G7"e>d A>B|"C"c>g "G7"B>f "F"A2 "G7"G2|
"C"ce/e/ G>c (3efe c>B|"F"A2A>GA3f|"C"eg/g/ c>e "G7"e>d A>B|"C"c2c2c2z2|
"C"ce/e/ ce/g/ c'>b c'>b|"F"b>a f>a "G7"d2z2|df/f/ df/f/ b>a b>a|"C"a2g>ae2d2|
"C"ce/e/ ce/g/ c'>b c'>b|"F"b2a>ga2z2|"C"eg/g/ c>e "G7"e>d A>B|"C"c6||
% abcbook-tune_id 6342d53a4d761eb5c992c077


% abcbook-boost 0
% abcbook-tablature 
% abcbook-transpose 
% abcbook-lastupdated 1665324378382
% abcbook-soundfonts 
% abcbook-repeats 1
% NFF Book 2013

